src/assets/icons/arrow-green-dark-learn-more.svg

<svg width="24" height="24" viewBox="0 0 24 24" fill="none" xmlns="http://www.w3.org/2000/svg">
<g id="Arrow">
<circle id="Ellipse 102" cx="12" cy="12" r="12" fill="#077453"/>
<path id="Union" fill-rule="evenodd" clip-rule="evenodd" d="M5.68018 6.99345C5.68018 6.29525 6.24618 5.72925 6.94437 5.72925L14.5296 5.72925C15.2278 5.72925 15.7938 6.29525 15.7938 6.99345C15.7938 7.69164 15.2278 8.25764 14.5296 8.25764H6.94437C6.24618 8.25764 5.68018 7.69164 5.68018 6.99345ZM17.0564 18.3715C16.3582 18.3715 15.7922 17.8055 15.7922 17.1073V9.5221C15.7922 8.8239 16.3582 8.2579 17.0564 8.2579C17.7546 8.2579 18.3206 8.8239 18.3206 9.5221L18.3206 17.1073C18.3206 17.8055 17.7546 18.3715 17.0564 18.3715ZM6.55642 15.7045C6.06272 16.1982 6.06272 16.9987 6.55642 17.4924C7.05012 17.9861 7.85057 17.9861 8.34427 17.4924L13.7078 12.1288C14.2015 11.6351 14.2015 10.8347 13.7078 10.341C13.2141 9.84728 12.4137 9.84728 11.92 10.341L6.55642 15.7045Z" fill="#BFFFC8"/>
</g>
</svg>

<svg width="24" height="24" fill="none" xmlns="http://www.w3.org/2000/svg"><circle cx="12" cy="12" r="12" fill="#077453"/><path fill-rule="evenodd" clip-rule="evenodd" d="M5.68 6.993c0-.698.566-1.264 1.264-1.264h7.586a1.264 1.264 0 1 1 0 2.529H6.944A1.264 1.264 0 0 1 5.68 6.993zm11.376 11.379a1.264 1.264 0 0 1-1.264-1.265V9.522a1.264 1.264 0 1 1 2.529 0v7.585c0 .698-.566 1.265-1.265 1.265zm-10.5-2.668a1.264 1.264 0 0 0 1.788 1.788l5.364-5.363a1.264 1.264 0 1 0-1.788-1.788l-5.364 5.364z" fill="#BFFFC8"/></svg>
